src/mech/cadquery_workflow/autodoc_integration/img/autodoc_sample.svg

<?xml version="1.0" encoding="UTF-8" standalone="no"?>
<svg
   xmlns:svg="http://www.w3.org/2000/svg"
   xmlns="http://www.w3.org/2000/svg"
   width="300.0"
   height="300.0"

>
    <g transform="scale(34.445949507888436, -34.445949507888436)   translate(4.179397191966982,-2.5356754929922163)" stroke-width="0.1"  fill="none">
       <!-- hidden lines -->
       <g  stroke="rgb(0,0,255)" fill="none" stroke-dasharray="0.1,0.1" >

       </g>

       <!-- solid lines -->
       <g  stroke="rgb(0,0,0)" fill="none">
			<path d="M0.3535533905932738,-2.2453655975512468 L-3.1819805153394642,-4.286607049870563 " />
			<path d="M-3.8890872965260117,-3.878358759406699 L-3.181980515339464,-4.286607049870562 " />
			<path d="M-0.3535533905932738,2.2453655975512468 L-3.889087296526012,0.20412414523193112 " />
			<path d="M-3.8890872965260117,0.20412414523193156 L-3.8890872965260117,-3.878358759406699 " />
			<path d="M-1.7677669529663689,-1.4288690166235205 L-1.698458368366823,-1.3849220324394373 L-1.6298172633248973,-1.3335349733201445 L-1.5625046892051901,-1.2752027247359852 L-1.4971689028932702,-1.210487058128475 L-1.4344391237274954,-1.1400112207442268 L-1.3749194737728176,-1.0644539334232619 L-1.3191831597950505,-0.9845428541462966 L-1.2677669529663687,-0.9010475702906073 L-1.2211660194654899,-0.8147721870828893 L-1.1798291517566892,-0.7265475836263546 L-1.144154446473033,-0.637223411080764 L-1.1144854705281804,-0.547659910057291 L-1.0911079523791924,-0.45871962603118166 L-1.0742470303052951,-0.3712591025573125 L-1.0640650842031776,-0.2861206322875225 L-1.0606601717798214,-0.20412414523193478 " />
			<path d="M-3.181980515339464,-4.286607049870562 L-3.181980515339464,-0.20412414523193156 " />
			<path d="M0.3535533905932738,1.8371173070873836 L-3.1819805153394642,-0.204124145231932 " />
			<path d="M0.3535533905932738,-2.2453655975512468 L0.3535533905932738,1.8371173070873836 " />
			<path d="M-1.0606601717798219,-1.8371173070873839 L-1.1299687563793677,-1.8732009828547 L-1.1986098614212934,-1.9010738446822657 L-1.2659224355410004,-1.920467461673825 L-1.2988772716264023,-1.9269229428963814 L-1.3312582218529203,-1.9311950626961205 L-1.3629872776752223,-1.933273529162251 L-1.3939880010186951,-1.9331533350870038 L-1.4241857084254619,-1.9308347700284343 L-1.4535076509733726,-1.9263234196128503 L-1.481883189534531,-1.9196301520785513 L-1.5092439649511398,-1.9107710920932877 L-1.535524062718699,-1.8997675819085262 L-1.5606601717798194,-1.8866461299440975 " />
			<path d="M-1.5606601717798216,-1.8866461299440962 L-1.5845917370461167,-1.8714383469270826 L-1.6072611052807004,-1.8541808697388182 L-1.6286136639898932,-1.8349152731534262 L-1.648597972989501,-1.8136879696805475 L-1.6671658883287255,-1.7905500977535405 L-1.6842726782731572,-1.7655573985325161 L-1.6998771310674419,-1.7387700816189988 L-1.7139416542180097,-1.7102526800057256 L-1.7264323650566844,-1.6800738946110116 L-1.7373191723669978,-1.6483064287722233 L-1.7541800944408952,-1.5803152210946543 L-1.7643620405430127,-1.5069338494707276 L-1.7677669529663689,-1.42886901662352 L-1.7643620405430125,-1.346872529567929 L-1.754180094440895,-1.261734059298138 L-1.7373191723669974,-1.1742735358242684 L-1.7139416542180093,-1.0853332517981595 L-1.6842726782731567,-0.995769750774687 L-1.6485979729895006,-0.9064455782290968 L-1.6072611052807,-0.8182209747725624 L-1.560660171779821,-0.7319455915648438 L-1.5092439649511387,-0.6484503077091541 L-1.4535076509733718,-0.5685392284321891 L-1.3939880010186942,-0.49298194111122484 L-1.3312582218529196,-0.4225061037269767 L-1.265922435541,-0.3577904371194669 L-1.1986098614212923,-0.29945818853530715 L-1.1299687563793661,-0.24807112941601417 L-1.0606601717798207,-0.2041241452319309 L-0.9913515871802752,-0.16804046946461504 L-0.922710482138349,-0.14016760763704927 L-0.8553979080186415,-0.12077399064548966 L-0.8224430719332396,-0.1143185094229332 L-0.7900621217067219,-0.11004638962319424 L-0.7583330658844202,-0.10796792315706383 L-0.7273323425409474,-0.10808811723231104 L-0.6971346351341807,-0.11040668229088069 L-0.6678126925862697,-0.1149180327064645 L-0.6394371540251114,-0.12161130024076361 L-0.6120763786085028,-0.1304703602260271 L-0.5857962808409439,-0.1414738704107883 L-0.5606601717798252,-0.15459532237521612 " />
			<path d="M-0.5606601717798206,-0.15459532237521867 L-0.5252326616406419,-0.1781781160226703 L-0.49270667956974934,-0.20632617916588858 L-0.46325848668212155,-0.23888697501187883 L-0.4370476652864852,-0.27568405378679883 L-0.4142162540949572,-0.3165180089325722 L-0.3948879785029581,-0.3611675577083028 L-0.37916758011057317,-0.4093907403406214 L-0.3671402491187472,-0.4609262312246606 L-0.35887116267620445,-0.5154947550701496 L-0.35440513167883236,-0.5728006003184101 L-0.3537663579355541,-0.632533221628913 L-0.3569583030166299,-0.6943689227513863 L-0.3639636694951067,-0.7579726106638396 L-0.37474449468307425,-0.8229996114706856 L-0.38924235635476023,-0.8890975382204421 L-0.407378689341633,-0.9559082005211548 L-0.42905521128385726,-1.0230695456051653 L-0.45415445523091746,-1.0902176203244285 L-0.4825404062052001,-1.1569885434441554 L-0.5140592382789426,-1.2230204775467528 L-0.5485401481702631,-1.287955589860139 L-0.5857962808409443,-1.3514419913845392 L-0.6256257420800747,-1.4131356438094649 L-0.6678126925862705,-1.4727022238871257 L-0.7121285176195509,-1.5298189351590759 L-0.7583330658844214,-1.5841762572181917 L-0.8061759509305514,-1.6354796230265738 L-0.8553979080186431,-1.6834510151998483 L-0.9057321990985168,-1.7278304726074616 L-0.956906058285716,-1.7683774991245693 L-1.008642170003468,-1.8048723669013746 L-1.0606601717798185,-1.837117307087382 " />
			<path d="M0.3535533905932738,1.8371173070873836 L-0.3535533905932739,2.2453655975512468 " />
			<path d="M-3.181980515339464,-0.20412414523193156 L-3.8890872965260117,0.20412414523193162 " />

       </g>
    </g>
    
</svg>

<?xml version="1.0" encoding="UTF-8" standalone="no"?>
<svg
   width="149.58638"
   height="227.98311"
   version="1.1"
   id="svg34"
   sodipodi:docname="autodoc_sample.svg"
   xmlns:inkscape="http://www.inkscape.org/namespaces/inkscape"
   xmlns:sodipodi="http://sodipodi.sourceforge.net/DTD/sodipodi-0.dtd"
   xmlns="http://www.w3.org/2000/svg"
   xmlns:svg="http://www.w3.org/2000/svg">
  <defs
     id="defs38" />
  <sodipodi:namedview
     id="namedview36"
     pagecolor="#ffffff"
     bordercolor="#666666"
     borderopacity="1.0"
     inkscape:showpageshadow="2"
     inkscape:pageopacity="0.0"
     inkscape:pagecheckerboard="0"
     inkscape:deskcolor="#d1d1d1"
     showgrid="false" />
  <g
     transform="matrix(34.44595,0,0,-34.44595,135.6856,78.835305)"
     stroke-width="0.1"
     fill="none"
     id="g32">
    <!-- hidden lines -->
    <g
       stroke="#0000ff"
       fill="none"
       stroke-dasharray="0.1, 0.1"
       id="g2" />
    <!-- solid lines -->
    <g
       stroke="#000000"
       fill="none"
       id="g30">
      <path
         d="M 0.35355339,-2.2453656 -3.1819805,-4.286607"
         id="path4" />
      <path
         d="M -3.8890873,-3.8783588 -3.1819805,-4.286607"
         id="path6" />
      <path
         d="M -0.35355339,2.2453656 -3.8890873,0.20412415"
         id="path8" />
      <path
         d="M -3.8890873,0.20412415 V -3.8783588"
         id="path10" />
      <path
         d="m -1.767767,-1.428869 0.069309,0.043947 0.068641,0.051387 0.067313,0.058332 0.065336,0.064716 0.06273,0.070476 0.05952,0.075557 0.055736,0.079911 0.051416,0.0834953 0.046601,0.0862754 0.041337,0.0882246 0.035675,0.0893242 0.029669,0.0895635 0.023378,0.0889403 0.016861,0.0874605 0.010182,0.0851385 0.0034,0.0819965"
         id="path12" />
      <path
         d="m -3.1819805,-4.286607 v 4.08248285"
         id="path14" />
      <path
         d="M 0.35355339,1.8371173 -3.1819805,-0.20412415"
         id="path16" />
      <path
         d="M 0.35355339,-2.2453656 V 1.8371173"
         id="path18" />
      <path
         d="m -1.0606602,-1.8371173 -0.069309,-0.036084 -0.068641,-0.027873 -0.067313,-0.019394 -0.032955,-0.00646 -0.032381,-0.00427 -0.031729,-0.00208 -0.031001,1.202e-4 -0.030198,0.00232 -0.029322,0.00451 -0.028375,0.00669 -0.027361,0.00886 -0.02628,0.011004 -0.025136,0.013121"
         id="path20" />
      <path
         d="m -1.5606602,-1.8866461 -0.023931,0.015208 -0.022669,0.017257 -0.021353,0.019266 -0.019984,0.021227 -0.018568,0.023138 -0.017107,0.024993 -0.015604,0.026787 -0.014065,0.028517 -0.012491,0.030179 -0.010887,0.031767 -0.016861,0.067991 -0.010182,0.073381 -0.00341,0.078065 0.00341,0.081997 0.010182,0.085138 0.016861,0.087461 0.023378,0.08894 0.029669,0.0895636 0.035675,0.0893242 0.041337,0.0882246 0.046601,0.0862754 0.051416,0.0834953 0.055736,0.0799111 0.05952,0.0755573 0.06273,0.0704758 0.065336,0.0647157 0.067313,0.0583322 0.068641,0.0513871 0.069309,0.043947 0.0693086,0.0360837 0.0686411,0.0278729 0.0673126,0.0193936 0.0329548,0.006455 0.032381,0.004272 0.031729,0.002078 0.0310007,-1.202e-4 0.0301977,-0.002319 0.029322,-0.004511 0.0283755,-0.006693 0.0273608,-0.008859 0.0262801,-0.0110035 0.0251361,-0.0131215"
         id="path22" />
      <path
         d="m -0.56066017,-0.15459532 0.0354275,-0.0235828 0.032526,-0.0281481 0.0294482,-0.0325608 0.0262108,-0.0367971 0.0228314,-0.040834 0.0193283,-0.0446495 0.0157204,-0.0482232 0.0120273,-0.0515355 0.008269,-0.0545685 0.004466,-0.0573058 6.3877e-4,-0.0597326 -0.003192,-0.0618357 -0.007005,-0.0636037 -0.0107808,-0.065027 -0.0144979,-0.0660979 -0.0181363,-0.0668107 -0.0216765,-0.0671613 -0.0250992,-0.067148 -0.0283859,-0.066771 -0.0315188,-0.066032 -0.0344809,-0.064935 -0.0372561,-0.063486 -0.0398295,-0.061694 -0.0421869,-0.059567 -0.0443158,-0.057117 -0.0462046,-0.054357 -0.0478429,-0.051303 -0.049222,-0.047971 -0.0503343,-0.04438 -0.0511739,-0.040547 -0.0517361,-0.036495 -0.052018,-0.032245"
         id="path24" />
      <path
         d="M 0.35355339,1.8371173 -0.35355339,2.2453656"
         id="path26" />
      <path
         d="m -3.1819805,-0.20412415 -0.7071068,0.4082483"
         id="path28" />
    </g>
  </g>
</svg>
